svgs/thin/peso-sign.svg

<svg xmlns="http://www.w3.org/2000/svg" viewBox="0 0 384 512"><!--! Font Awesome Pro 6.1.1 by @fontawesome - https://fontawesome.com License - https://fontawesome.com/license (Commercial License) Copyright 2022 Fonticons, Inc. --><path d="M48 63.31C48 46.02 62.02 32 79.31 32H184C254.1 32 313.1 79.46 330.7 144H376C380.4 144 384 147.6 384 152C384 156.4 380.4 160 376 160H334.1C335.4 167.8 336 175.8 336 184C336 197.8 334.2 211.3 330.7 224H376C380.4 224 384 227.6 384 232C384 236.4 380.4 240 376 240H325.4C303.1 296.2 248.2 336 184 336H64V472C64 476.4 60.42 480 56 480C51.58 480 48 476.4 48 472V240H8C3.582 240 0 236.4 0 232C0 227.6 3.582 224 8 224H48V160H8C3.582 160 0 156.4 0 152C0 147.6 3.582 144 8 144H48V63.31zM64 240V320H184C239.1 320 286.6 287.2 307.1 240H64zM320 184C320 175.8 319.3 167.8 317.9 160H64V224H314C317.9 211.4 320 197.9 320 184zM79.31 48C70.86 48 64 54.86 64 63.31V144H314C296.9 88.41 245.2 48 184 48H79.31z"/></svg>

<svg xmlns="http://www.w3.org/2000/svg" viewBox="0 0 384 512"><!--! Font Awesome Pro 6.4.2 by @fontawesome - https://fontawesome.com License - https://fontawesome.com/license (Commercial License) Copyright 2023 Fonticons, Inc. --><path d="M48 63.3C48 46 62 32 79.3 32H184c70.1 0 129.1 47.5 146.7 112H376c4.4 0 8 3.6 8 8s-3.6 8-8 8H334.1c1.2 7.8 1.9 15.8 1.9 24c0 13.8-1.8 27.3-5.3 40H376c4.4 0 8 3.6 8 8s-3.6 8-8 8H325.4c-22.3 56.2-77.2 96-141.4 96H64V472c0 4.4-3.6 8-8 8s-8-3.6-8-8V328 240H8c-4.4 0-8-3.6-8-8s3.6-8 8-8H48V160H8c-4.4 0-8-3.6-8-8s3.6-8 8-8H48V63.3zM64 240v80H184c55.1 0 102.6-32.8 124-80H64zm250-16c3.9-12.6 6-26.1 6-40c0-8.2-.7-16.2-2.1-24H64v64H314zM184 48H79.3C70.9 48 64 54.9 64 63.3V144H314c-17.1-55.6-68.8-96-130-96z"/></svg>
